styles/1/Numix/32/places/red-user-desktop.svg

<?xml version="1.0" encoding="UTF-8" standalone="no"?>
<!-- Created with Inkscape (http://www.inkscape.org/) -->

<svg
   xmlns:dc="http://purl.org/dc/elements/1.1/"
   xmlns:cc="http://creativecommons.org/ns#"
   xmlns:rdf="http://www.w3.org/1999/02/22-rdf-syntax-ns#"
   xmlns:svg="http://www.w3.org/2000/svg"
   xmlns="http://www.w3.org/2000/svg"
   xmlns:sodipodi="http://sodipodi.sourceforge.net/DTD/sodipodi-0.dtd"
   xmlns:inkscape="http://www.inkscape.org/namespaces/inkscape"
   width="32"
   height="32"
   id="svg2"
   version="1.1"
   inkscape:version="0.91 r"
   sodipodi:docname="red-user-desktop.svg"
   inkscape:export-filename="/media/Data/Main/Visuals/Icons/Numix/Desktop/repos/numix-wiki/Gjorgi/Numix-folders/48/New/folder-144.png"
   inkscape:export-xdpi="270"
   inkscape:export-ydpi="270">
  <defs
     id="defs4" />
  <sodipodi:namedview
     id="base"
     pagecolor="#ffffff"
     bordercolor="#666666"
     borderopacity="1.0"
     inkscape:pageopacity="0.0"
     inkscape:pageshadow="2"
     inkscape:zoom="21.767834"
     inkscape:cx="15.341978"
     inkscape:cy="19.134655"
     inkscape:document-units="px"
     inkscape:current-layer="layer1"
     showgrid="true"
     inkscape:window-width="1280"
     inkscape:window-height="998"
     inkscape:window-x="0"
     inkscape:window-y="0"
     inkscape:window-maximized="1"
     showguides="true"
     inkscape:guide-bbox="true">
    <inkscape:grid
       type="xygrid"
       id="grid2985"
       empspacing="5"
       visible="true"
       enabled="true"
       snapvisiblegridlinesonly="true" />
  </sodipodi:namedview>
  <metadata
     id="metadata7">
    <rdf:RDF>
      <cc:Work
         rdf:about="">
        <dc:format>image/svg+xml</dc:format>
        <dc:type
           rdf:resource="http://purl.org/dc/dcmitype/StillImage" />
        <dc:title />
      </cc:Work>
    </rdf:RDF>
  </metadata>
  <g
     inkscape:label="Layer 1"
     inkscape:groupmode="layer"
     id="layer1"
     transform="translate(0,-1020.3622)">
    <path
       style="font-size:medium;font-style:normal;font-variant:normal;font-weight:normal;font-stretch:normal;text-indent:0;text-align:start;text-decoration:none;line-height:normal;letter-spacing:normal;word-spacing:normal;text-transform:none;direction:ltr;block-progression:tb;writing-mode:lr-tb;text-anchor:start;baseline-shift:baseline;color:#000000;fill:#ef5350;fill-opacity:1;fill-rule:nonzero;stroke:none;stroke-width:2.28612947;marker:none;visibility:visible;display:inline;overflow:visible;enable-background:accumulate;font-family:Sans;-inkscape-font-specification:Sans"
       d="M 2.03125 4 C 1.4665378 4.056 0.99079304 4.58885 1 5.15625 L 1 26.84375 C 0.99302 27.45105 1.5489584 28.007 2.15625 28 L 29.84375 28 C 30.451042 28.01 31.006984 27.45105 31 26.84375 L 31 7.15625 C 31.007 6.54895 30.451042 5.993 29.84375 6 L 19 6 L 19 5.15625 C 19.0069 4.55935 18.471863 4.0095 17.875 4 L 2.15625 4 L 2.03125 4 z M 11 10 L 21 10 C 22.108 10 23 10.892 23 12 L 23 19 C 23 20.108 22.108 21 21 21 L 18 21 L 20 23 C 21 24 21 24 20 24 L 12 24 C 11 24 11 24 12 23 L 14 21 L 11 21 C 9.892 21 9 20.108 9 19 L 9 12 C 9 10.892 9.892 10 11 10 z M 11 12 L 11 19 L 21 19 L 21 12 L 11 12 z M 13.34375 13 C 13.437524 12.984375 13.5 13 13.5 13 L 15.5 13 L 17.5 15 L 17.5 17 C 17.5 17 17.5 18 16.5 18 L 13.5 18 C 13.5 18 12.500067 18 12.5 17 L 12.5 14 C 12.49995 13.25 13.062428 13.046875 13.34375 13 z M 13.5 14 L 13.5 17 L 16.5 17 L 16.5 15.5 L 15 15.5 L 15 14 L 13.5 14 z "
       transform="translate(0,1020.3622)"
       id="path3912" />
  </g>
</svg>

<!-- Created with Inkscape (http://www.inkscape.org/) -->
<svg xmlns="http://www.w3.org/2000/svg" viewBox="0 0 32 32">
 <g transform="translate(0,-1020.3622)">
  <path d="m 2.031 4 c -0.565 0.056 -1.04 0.589 -1.031 1.156 l 0 21.688 c -0.007 0.607 0.549 1.163 1.156 1.156 l 27.688 0 c 0.607 0.01 1.163 -0.549 1.156 -1.156 l 0 -19.688 c 0.007 -0.607 -0.549 -1.163 -1.156 -1.156 l -10.844 0 l 0 -0.844 c 0.007 -0.597 -0.528 -1.147 -1.125 -1.156 l -15.719 0 l -0.125 0 z m 8.969 6 l 10 0 c 1.108 0 2 0.892 2 2 l 0 7 c 0 1.108 -0.892 2 -2 2 l -3 0 l 2 2 c 1 1 1 1 0 1 l -8 0 c -1 0 -1 0 0 -1 l 2 -2 l -3 0 c -1.108 0 -2 -0.892 -2 -2 l 0 -7 c 0 -1.108 0.892 -2 2 -2 z m 0 2 l 0 7 l 10 0 l 0 -7 l -10 0 z m 2.344 1 c 0.094 -0.016 0.156 0 0.156 0 l 2 0 l 2 2 l 0 2 c 0 0 0 1 -1 1 l -3 0 c 0 0 -1 0 -1 -1 l 0 -3 c 0 -0.75 0.562 -0.953 0.844 -1 z m 0.156 1 l 0 3 l 3 0 l 0 -1.5 l -1.5 0 l 0 -1.5 l -1.5 0 z" transform="translate(0,1020.3622)" style="visibility:visible;fill:#ef5350;fill-opacity:1;stroke:none;display:inline;color:#000;fill-rule:nonzero"/>
 </g>
</svg>
